storage/app/icons/phosphoricons/light/grid-nine-light.svg

<svg xmlns="http://www.w3.org/2000/svg" fill="currentColor" viewBox="0 0 256 256"><path d="M216 50H40a14 14 0 0 0-14 14v128a14 14 0 0 0 14 14h176a14 14 0 0 0 14-14V64a14 14 0 0 0-14-14m-114 96v-36h52v36Zm52 12v36h-52v-36ZM38 110h52v36H38Zm64-12V62h52v36Zm64 12h52v36h-52Zm52-46v34h-52V62h50a2 2 0 0 1 2 2M40 62h50v36H38V64a2 2 0 0 1 2-2m-2 130v-34h52v36H40a2 2 0 0 1-2-2m178 2h-50v-36h52v34a2 2 0 0 1-2 2"/></svg>

<svg xmlns="http://www.w3.org/2000/svg" viewBox="0 0 256 256" fill="currentColor"><path d="M216,50H40A14,14,0,0,0,26,64V192a14,14,0,0,0,14,14H216a14,14,0,0,0,14-14V64A14,14,0,0,0,216,50ZM102,146V110h52v36Zm52,12v36H102V158ZM38,110H90v36H38Zm64-12V62h52V98Zm64,12h52v36H166Zm52-46V98H166V62h50A2,2,0,0,1,218,64ZM40,62H90V98H38V64A2,2,0,0,1,40,62ZM38,192V158H90v36H40A2,2,0,0,1,38,192Zm178,2H166V158h52v34A2,2,0,0,1,216,194Z"/></svg>
